X:1
T:The Well-Tempered Clavier Book I - VIII
T:BWV 853    (A = 415 Hz)
T:J. S. Bach
%%score { ( 1 2 ) | ( 3 4 ) }
L:1/8
M:3/2
K:Gb
V:1 treble nm="Harp"
V:2 treble 
V:3 bass 
V:4 bass 
V:1
"^Praeludium" B4 z2 z B e3 g | c4 z2 z e a3 c' | =d4 z2 z f B/4A/4B/4A/4B/4A/4B/4A/4 B/4A/4G/A/B/ | %3
 A/4G/4A/4G/4A/4G/4A/4G/4 A/4G/4A/4G/4F/E/ g4 !arpeggio!g4 | !arpeggio!g4 z2 z g/_f/ e/ f3 d/ | %5
 !arpeggio!e4 !arpeggio!e4 !arpeggio!e4 | !arpeggio!b4 z2 z e/d/ c/ d3 B/ | %7
 d/4c/4d/4c/4d/4c/4d/4c/4 d/4c/4d/4c/4B/A/ !arpeggio![eac']4 !arpeggio![eac']4 | %8
 !arpeggio!c'4 z2 z/ b/a/g/ f/g/f/g/ a/g/a/f/ | %9
 a/4g/4a/4g/4a/4g/4a/4g/4 a/4g/4a/4g/4f/e/ !arpeggio!b4 !arpeggio!b4 | %10
 !arpeggio!=c'4 z2 z f/e/ =c/d/c/d/ e/d/e/c/ | %11
 e/4d/4e/4d/4e/4d/4e/4d/4 e/4d/4e/4d/4=c/B/ !arpeggio![Bdf]2 f/g/f/e/ d/c/B/A/ GA/F/ | %12
 !arpeggio![EG-]2 GB/d/ g2- g/f/e/d/ =c3/2e/4d/4 c/d/e | %13
 F3/2=G/4=A/4 B/4A/4B/4A/4B/4A/4G/4A/4 B8- | B8 [=C=A]4 | B3 =c !arpeggio!d4 !arpeggio!d4 | %16
 d3 c/B/ _f4- f3 e/d/ | =g4- g3 f/e/ a4- | %18
 a=gab c'/4b/4c'/4b/4c'/4b/4c'/4b/4 c'/4b/4c'/4b/4c'/4b/4c'/4b/4 c'/4b/4c'/4b/4c'/4b/4c'/4b/4 a2 | %19
 a3 b f3 g/a/ =d3 e/f/ | B3 a =d3 e/f/ B3 =c/d/ | e3 d/_c/ d4 d4 | d3 c/B/ c4 !arpeggio!c4 | %23
 !arpeggio!c3 B/A/ f3 c c/4B/4c/4B/4c/4B/4c/4B/4 c/4B/4c/4B/4c/A/ | %24
 !arpeggio![EG-]4 G/E/F/G/ A/B/=c/=d/ e/f/g/a/ g/f/g/e/ | !arpeggio!_f3 c/__B/ A3 B/c/ _F3 G/A/ | %26
 =D3 F/A/ c3 B/A/ f3 e/=d/ | b =a2 b !arpeggio!e4 !arpeggio!=d3 e | e12- | e4 e2- ee/d/c/ d3 B/ | %30
 [Ac-]4 c2- c/c/B/A/ B3 =G | [=DA]4 [DA]4 [DA]4 | [FA]4 [FA]4 [FA]4 | [FA]4 [FA]4 [FA]4 | %34
 !arpeggio!c4- c/B/A/G/ F/E/=D/F/ A/c/=d/f/ a/c'/b/d/ | e3 B{A} G4 G/4F/4G/4F/4E F2 | %36
 E4- E2- E/F/=G/A/ B2- B/_F/E/^D/ | C4- C>E F/=G/A/B/ c-c/4B/4A/4_G/4 F/G/A/F/ | =D8- D3 D | %39
 !fermata![=G,B,E]12 |[M:4/4] z8 ||[K:F#]"^Fuga" z8 | z8 | z4 A2 d2- | dfed cd e2 | A2 d3 c ^B2 | %46
 A^B c2- c3 =B | A2 d2- d=d^de | f2 ef gefg | agfe f2 ed | ^^c d2 c d^c B2- | %51
 BA/G/ AB/c/ de/f/ e>d | ^^c2 d^c BAGF | EF G2- GF/E/ FG | A2 Bc/d/ G2 z A | Bcde fgab- | %56
 bc f4 e2- | e2 dc ^B^^cde | f2 ed cdef | c2 ^B2 A2 z2 | A2 e2- efed | cd e2 A2 z d- | %62
 dc ^B2 A2 z g- | gf e2- e/d/e/f/ d>e | e2 a2- abag | ^^fg a2 d2 g2- | gf e4 d2- | d2 g3 agf | %68
 ef g2 c2 f2- | f=edg c f2 ^e | f2 c2- cBcd | ed c2 g2 c2- | cd e2 f4- | fedc ^B2 ^^c2 | d4 c4 | %75
 Bcd=e ABcd | BAGF E2 FG | A2 ^B^^c d2- d^c | ^B^^c d4 c2 | d2 ^^cd egfe | dc BA/B/ A^B^^cd | %81
 eAag fgab | e2 ^^f2 g^fed | ^^c2 d2- d^cBA | BA G2- GF/E/ FG | A2 D2- D^^CDE | FE D2 A2 D2- | %87
 DE ^^F2 G2 g2 | d3 c d3 e | f3 e d2 a2 | d3 d ^^cdec | defg aAde | ^^c2 z2 A2 d2- | d=edc Bc d2 | %94
 GA/B/ AB c2 F2- | FEFG AG F2 | =e4- e^^c d2- | dfed ^^ce a2- | abag fg a2 | d2 g2- gf e2 | %100
 d2 c2 B2 A2 | G2 F2 E2 z ^B | ^^cd e2- ed ^c/B/c/^^f/ | g/a/ b2 a/g/ ade^^f | g2 z2 a2 d2- | %105
 dBcd =ed c2 | g2 d2- de ^^f2 | gagf ef g2- | gf ef/g/ a/g/ a2 g/f/ | e f2 e fc f2- | fgf=e de f2 | %111
 B2 =e2- ed c2 | B2 =e2- e^^c d2- | d2 g2- gg^^f^f- | ffe=e d2 c2 | B2- BB A2- Af | G4- GF/E/ FG | %117
 A2 z2 e4 | a6 b2 | a2 g2 f2 g2 | a4 d4 | g6 f2 | =e4 d4- | dB G2- GA B2- | BG E2- EF G2- | %125
 GE ^^C2- CCDE | F^^FGA B^B^^cd | d2 ^^c2 !fermata!d4 |] %128
V:2
 G4 G4 G4 | A4 [Ac]4 c4 | A4 A4 F4 | E4 z4 !arpeggio![GBe]4 | %4
 !arpeggio![GBd]4[I:staff +1] !arpeggio![G,B,]4 !arpeggio![G,B,]4 | %5
[I:staff -1] !arpeggio![EGc]4 !arpeggio![Gc]4 !arpeggio![Gc]4 | %6
 !arpeggio![Be]4[I:staff +1] !arpeggio![E,=G,]4 !arpeggio![E,G,]4 | x12 | %8
[I:staff -1] !arpeggio![fa]4 !arpeggio![FB]4 !arpeggio![FB]4 | %9
 !arpeggio!B4 !arpeggio![Beg]4 !arpeggio![deg]4 | %10
 !arpeggio![=ceg]4[I:staff +1] !arpeggio![=CF]4 !arpeggio![CF]4 | %11
 !arpeggio!F4 !arpeggio!F4 !arpeggio!F4 | !arpeggio!D4 !arpeggio!=C4 !arpeggio!C4 | %13
 !arpeggio!=C4[I:staff -1] z2 z F _G3 E | =C2- C/D/C/D/ E/D/C/D/ E/F/E/F/ G2 G/4F/4G/4F/4G/4F/4E/ | %15
 D3 E !arpeggio![FB]4 !arpeggio![FB]4 | [FB]3 z [Bd]4- [Bd]3 z | [Bd]4- [Bd]3 z [ce]4 | z4 =g8 | %19
 [ce]3 z z8 | x12 | z8 [FB]4 | [FB]3 z z4 !arpeggio![EA]4 | !arpeggio![FA]3 z z8 | x12 | %25
 !arpeggio![_FAc]3 z z8 | x12 | z4 !arpeggio![GB]4 !arpeggio![FB]4 | [EB]3 (3A/=G/A/ A4- A3 _G/A/ | %29
 B12 | E4- E2- E/E/D/C/ D3 B, | C4 C4 C4 | C4 C4 C4 | =D4 D4 D4 | x12 | z2 z G E4 =D4 | x12 | x12 | %38
 z2 z C/B,/ C3 A, F,4 | x12 |[M:4/4] x8 ||[K:F#] D2 A3 BAG | FG A2 D2 G2- | GF E2 D3 E | %44
 F2 G2 A3 G | FE FE/D/ E A2 ^^G | A2- AG ^^FD G2- | GFED E2 FG | AB^^cd ecde | fed^^c d^c B2 | %50
 A2 G2 F2 GF |[I:staff +1] E3 D/E/ FG/A/ E3/2[I:staff -1]F/4G/4 | AGFE D2 ^^CD | ED^^C^B, C2 DE | %54
 F2 GF EC F2- | F2 E4[I:staff +1] D2 | CE[I:staff -1]FG ABcB | AGFE DEFA | dc ^B4 A2- | %59
 A2 ^^G2 A,2 E2- | EFED CD E2 |[I:staff +1] A,2[I:staff -1] z D- DC[I:staff +1] ^B,2 | %62
 A,2[I:staff -1] z G- GF E2 |[I:staff +1] D2[I:staff -1] z[I:staff +1] C[I:staff -1] A^^G A2 | %64
 ^^G2 A2 d3 e | d3 c ^B3 c | d2 G2 c4 | ^B2 z2 G2 c2 | cdcB AB c2 | F2 B2- BA G2 | FEFG AGA^B | %71
 c B2 A BAGB | A4 A^Bcd | G2 A2- AGFE | DF B2- BAGF | G6 ^^F2 | %76
 G2[I:staff +1] D2- D^^C[I:staff -1]DE | FE[I:staff +1] D2[I:staff -1] A2[I:staff +1] D2- | %78
 D[I:staff -1]E F2 G4 | FGA^B ^^c[I:staff +1]A,^B,^^C | D3 E F2 ED | ^CD E2 ED/C/ D2 | %82
 DCB,A, B,D G2 | GFED E2 ^^F2 |[I:staff -1] GFED ^^C2 DE | FEFG AG FE/D/ | ^^C A2 F/E/ ^^FGA^C | %87
 B,CD=E D2[I:staff +1] G,2- | G,^^F,G,A, B,A, G,2 | D2 A,2- A,B, C2- | C[I:staff -1]cBA GFGE | %91
 FGAG GF/E/ FG | A2 A,2 D3 =E | D[I:staff +1]CB,C[I:staff -1] D2[I:staff +1] G,F, | %94
 E,2[I:staff -1] C2[I:staff +1] F,3 E, | F,[I:staff -1]G,A,G,[I:staff +1] F,2 A,G, | %96
 G,2[I:staff -1] c2 F4 | BAGF[I:staff +1] ED^^CD | A,GFE D2[I:staff -1] dc | BAGB A d2 c- | %100
 c B2 A2 G2 F- | F E2 D ^^CE A2- | ABAG[I:staff +1] FG A2 | D2 G2- G^^F^E=E | %104
 D[I:staff -1]BA[I:staff +1]G ^^FD/E/ ^^FG/A/ |[I:staff -1] B3 A G^^FGA | %106
[I:staff +1] DE^^F[I:staff -1]G A/B/ c2 B/A/ | B2 z2[I:staff +1] G4 |[I:staff -1] c6 d2 | %109
 c2 B2 A2 B2 | c4 F4 | B6 A2 | G4 F2 B2- | BdcB AB c2 | G2 c2- cB A2 | AD G2- GG F2- | %116
 F-FED ^^C2 D2 | D^^C/^B,/ ^^CE A3 B | A3 G F3 G | A4[I:staff +1] D2 G2- | GF E2 FA, D2 | %121
 D=EDC B,C D2 | G,2 C2- CB, A,2 | G,3 A, B,A,G,F, | E,3 F, G,F,E,D, | %125
 ^^C,3 D, E,2[I:staff -1] F,G, | A,A,B,C DDE^F | EBAG ^^F4 |] %128
V:3
[I:staff -1] E4 E4 E4 | E4 E4 [EA]4 | [EF]4 [=DF]4 D4 |[I:staff +1] z4 z2 z B, G,3 E, | %4
 ^A,,4 !arpeggio![B,,D,]4 !arpeggio![B,,D,]4 | !arpeggio![C,E,G,C]4 z2 z G, E,3 C, | %6
 =G,,4 !arpeggio![G,,B,,]4 !arpeggio![G,,B,,]4 | !arpeggio![A,,C,E,A,]4 z2 z[I:staff -1] c A3 F | %8
 =D4 !arpeggio!D4 !arpeggio!D4 | !arpeggio![EG]4[I:staff +1] z2 z[I:staff -1] G E3 =C | %10
[I:staff +1] =A,4 !arpeggio!A,4 !arpeggio!A,4 | %11
 !arpeggio![B,D]4 !arpeggio![B,D]4 !arpeggio![B,D]4 | %12
 !arpeggio![E,B,]4 !arpeggio![E,B,]4 !arpeggio![E,B,]4 | !arpeggio!=A,4 !arpeggio![F,B,]4 B,4 | %14
 F,4 F,4 F,4 | [F,B,]4 z2 z ^A,, ^C,2- C,F, | =G,,4- G,,2- G,,/B,,/A,,/G,,/ D,4- | %17
 D,3 C,/B,,/ _F,E,F,D, C,/B,,/A,,/B,,/ C,/A,,/B,,/C,/ | _F,,2- F,,/_F,/E,/D,/[I:staff -1] e4 d4 | %19
[I:staff +1] A,,4 z2 z C F,3 G,/A,/ | =D,3 E,/F,/ B,,3 A, D,3 E,/F,/ | G,,4 =G,,3 B, =G,3 E, | %22
 A,,4 z2 z C A,3 F, | !arpeggio![F,A,]4 !arpeggio![F,B,]4 !arpeggio![F,B,]4 | %24
 !arpeggio![G,B,]4 !arpeggio![G,B,]4 !arpeggio![G,B,]4 | !arpeggio![_F,A,]4 z4 z4 | [F,B,]4 z4 z4 | %27
 z4 !arpeggio![G,B,]4 !arpeggio![A,B,]4 | C4 F/4E/4F/4E/4F/4E/4F/4E/4 F/4E/4F/4E/4F/4E/4F/4E/4 E4 | %29
 [B,E]4 [B,E]4 [B,E]4 | C4 _F,4 F,4 | F,4- F,2- F,/G,/F,/E,/ F,>G, A,/F,/G,/A,/ | %32
 =D,4- D,2- D,/E,/D,/=C,/ D,>E, F,/D,/E,/F,/ | %33
 C,4- C,2- C,/D,/C,/B,,/ C,/B,,/A,,/B,,/ C,/A,,/B,,/C,/ | %34
[I:staff -1] !arpeggio![=DFA]4[I:staff +1] z4 z4 | z2 z E, [E,G,]4 [F,A,]4 | %36
 !arpeggio![=G,B,_D]4 !arpeggio![G,B,_D]4 !arpeggio![G,B,_D]4 | A,4 A,4 A,4 | F,4 F,4 E,4 | %39
 !fermata![E,,B,,E,]12 |[M:4/4] z8 ||[K:F#] z8 | z8 | z8 | z8 | z8 | z8 | z8 | D,2 A,3 B,A,G, | %49
 F,G, A,2 D,2 G,2- | G,F, =F,2 D,2 D2 | ^^C2 ^C2 =C2 B,2 | A,A,, D,2- D,F,E,D, | %53
 ^^C,D, E,2 A,,2 D,2- | D,C, B,,4 A,,2 | G,,A,,B,,C, D,E,F,G, | A,G,A,B, C2 C,2 | %57
 F,,2 F,2- F,E,D,C, | ^B,,A,,^^G,,E,, A,,B,,C,D, | E,D,E,E,, A,,^^G,,A,,^B,, | %60
 C,^B,,C,D, E,D, C,D,/E,/ | F,/E,/F, ^^G,,2 A,,2 ^B,,2 | C,A,,E,D, ^^C, D,2 C, | %63
 D,^B,^^G,A, F,E, F,2 | E,2 z2 F,2 B,2- | B,CB,A, G,^^F,G,A, | ^B,2 C=B, A,G,^^F,D, | %67
 G,A,G,F, E,F,E,D, | C,B,A,G, F,G,F,=E, | D,C,B,,G,, A,,F,,C,C,, | F,,G,,A,,G,, F,,F,E,D, | %71
 C,2 F,4 E,2 | F,E,D,^^C, D,2 A,,^B,, | C,2 F,,2 G,,2 A,,2 | B,,A,,G,,F,, =E,,2 D,,2 | %75
 G,,A,,B,,C, D,2 z D, | G,A,B,G, A,G,F,=F, | D,2 G,3 ^^F,/^E,/ F,2 | G,F,E,D, E,F,G,A, | %79
 D,/D/C/B,/ A,2- A,F,G,A, | B,A, G,2 D2 A,2- | A,^B, ^^C2 D=B, F,G, | A,2 D,2 G,A, B,2 | A,4 z4 | %84
 z4 A,,2 D,,2- | D,,^^C,,D,,E,, F,,E,, D,,2 | A,,2 D,,2- D,,E,, ^^F,,2 | G,,2 A,,2 B,,C,B,,A,, | %88
 G,,A,, B,,=E,/C,/ G,2 B,,C, | D,^^C,D,E, F,G,E,^^F, | G,A,G,F, E,D,^^C,B, | A,G,F,E, D,C, B,,2 | %92
 A,,2 D,3 =E,D,C, | B,,C, D,2 G,,A,, B,,2 | C,2 F,,2- F,,E,,F,,G,, | A,,G,,F,,=E, D,4- | %96
 D,C,B,,A,, B,,2 B,A, | G,A,B,G, A,3 G, | F,G, A,2 D,E, ^^F,2 | G,F,E,D, ^^C,D,A,,A, | %100
 B,D,E,^^F, G,E,^^C,D, | ^B,,^^C,D,D,, A,,2 z2 | A,4 D4- | D2 =E2 D2 C2 | B,2 C2 D4 | G,4 C4- | %106
 C2 B,2 A,4 | G,2 C2- CDCB, | A,B, C2 F,2 B,2- | B,A, G,2 F,=E, D,/C,/D,/E,/ | %110
 A,,F,,G,,A,, B,,C, D,=E,/F,/ | G,A,/B,/ C,D,/=E,/ F,, F,2 ^^F, | G,^^F,G,A, B,A,G,^F, | %113
 E,F,E,D, ^^C,^^C/D/ =EA, | B,C/4^B,/4C/4^B,/4 CA, ^^F, G,2 F, | G,F,=E,D, C,^^C,D,A,, | %116
 B,,^B,,C,G,, A,,4- | A,,E, A,2- A,B,A,G, | F,G, A,2 D,E,/F,/ G,2- | G,F,E,^^C DE/F/ ED | %120
 ^^C D2 ^C- CD/=E/ DC | B,CB,A, G,F,=E,D, | C,C/B,/ A,G, ^^F, G,2 ^F, | E,4- E,F,E,D, | %124
 ^^C,4- C,D,C,^B,, | A,,4- A,,G,,F,,E,, | D,,C,B,,A,, G,,F,E,D, | A,2 A,,2 !fermata!D,,4 |] %128
V:4
 x12 | x12 | x12 | x12 | x12 | x12 | x12 | x12 | x12 | x12 | x12 | x12 | x12 | %13
 !arpeggio!E,4 !arpeggio!D,4 E,4 | F,4 F,,4 F,,4 | B,,4 z8 | x12 | x12 | z4 E,3 D, E,3 E,, | x12 | %20
 x12 | x12 | x12 | !arpeggio!=D,4 !arpeggio!D,4 !arpeggio!D,4 | %24
 !arpeggio!E,4 !arpeggio!E,4 !arpeggio!E,4 | !arpeggio![A,,C,]4 z4 z4 | A,,4 z4 z4 | %27
 z4 !arpeggio![B,,E,]4 !arpeggio![B,,E,]4 | C,4 C4 C4 | =G,4 G,4 G,4 | A,4 z8 | x12 | x12 | x12 | %34
 =D,,4 z4 z4 | z2 z E,, B,,4 B,,4 | !arpeggio!E,4 !arpeggio!E,4 !arpeggio!E,4 | E,4 E,4 E,4 | %38
 E,4 E,4 z4 | x12 |[M:4/4] x8 ||[K:F#] x8 | x8 | x8 | x8 | x8 | x8 | x8 | x8 | x8 | x8 | x8 | x8 | %53
 x8 | x8 | x8 | x8 | x8 | x8 | x8 | x8 | x8 | x8 | x8 | x8 | x8 | x8 | x8 | x8 | x8 | x8 | x8 | %72
 x8 | x8 | x8 | x8 | x8 | x8 | x8 | x8 | x8 | x8 | x8 | x8 | x8 | x8 | x8 | x8 | x8 | x8 | x8 | %91
 x8 | x8 | x8 | x8 | x8 | x8 | x8 | x8 | x8 | x8 | x8 | x8 | x8 | x8 | x8 | x8 | x8 | x8 | x8 | %110
 x8 | x8 | x8 | x8 | x8 | x8 | x8 | x8 | x8 | x8 | x8 | x8 | x8 | x8 | x8 | x8 | x8 | x8 |] %128

